images/for-You/watch.svg

<svg width="14" height="17" viewBox="0 0 14 17" fill="none" xmlns="http://www.w3.org/2000/svg">
<path d="M12.5714 1.42857H13.4286C13.5893 1.42857 13.7143 1.30357 13.7143 1.14286V0.571428C13.7143 0.410714 13.5893 0.285713 13.4286 0.285713H0.285714C0.125 0.285713 0 0.410714 0 0.571428V1.14286C0 1.30357 0.125 1.42857 0.285714 1.42857H1.14286C1.14286 4.73214 2.72321 7.125 4.47321 8.28571C2.72321 9.44643 1.14286 11.8393 1.14286 15.1429H0.285714C0.125 15.1429 0 15.2679 0 15.4286V16C0 16.1607 0.125 16.2857 0.285714 16.2857H13.4286C13.5893 16.2857 13.7143 16.1607 13.7143 16V15.4286C13.7143 15.2679 13.5893 15.1429 13.4286 15.1429H12.5714C12.5714 11.8393 10.9911 9.44643 9.24107 8.28571C10.9911 7.125 12.5714 4.73214 12.5714 1.42857ZM11.4286 1.42857C11.4286 2.73214 11.1339 3.88393 10.6696 4.85714H3.04464C2.58036 3.88393 2.28571 2.73214 2.28571 1.42857H11.4286ZM10.9196 12.2857H2.79464C3.45536 10.5625 4.64286 9.33929 5.83036 8.85714H7.88393C9.07143 9.33929 10.2589 10.5625 10.9196 12.2857Z" fill="white"/>
</svg>

<svg width="14" height="17" fill="none" xmlns="http://www.w3.org/2000/svg"><path d="M12.571 1.429h.858c.16 0 .285-.125.285-.286V.57a.282.282 0 0 0-.285-.285H.286A.282.282 0 0 0 0 .57v.572c0 .16.125.286.286.286h.857c0 3.303 1.58 5.696 3.33 6.857-1.75 1.16-3.33 3.553-3.33 6.857H.286a.282.282 0 0 0-.286.286V16c0 .16.125.286.286.286h13.143c.16 0 .285-.125.285-.286v-.571a.282.282 0 0 0-.285-.286h-.858c0-3.304-1.58-5.697-3.33-6.857 1.75-1.161 3.33-3.554 3.33-6.857Zm-1.142 0a7.915 7.915 0 0 1-.76 3.428H3.046a7.915 7.915 0 0 1-.76-3.428h9.144Zm-.51 10.857H2.796c.66-1.723 1.848-2.947 3.035-3.429h2.054c1.187.482 2.375 1.706 3.036 3.429Z" fill="#fff"/></svg>
